X: 33
T:King of the Fairies
M:4/4
L:1/8
Q:120     %Tempo
C:Traditional
K:D
F2 |EDEF GFGA |B2 B2 G3 A |B2 E2 EFGE |
FGFE D4 |EDEF GFGA |BAGB d3 c |B2 E2 GFED |
E6 d2 ||e2 e2 Bdef |gagf e3 f |e2 B2 BABc |
dedc Bc d2 |e2 e2 Bdef |gagf efed |Bdeg fedf |
e6 ef |g3 e f2 d2 |edBc d3 e |dBAF GABc |
dBAF GFED |B2 E2 EFGA |B2 e2 e2 ef |e2 B2 BAGF |
E6 z2 |]
